X: 11150
T: Dulcamara
R: polka
M: 2/4
K: Adorian
M:4/4
E|AG AB cE Ac|ea ag e3e|ae ec e2 dB|d2 cA B4|
Ed dc B2 BA|Bc dc B2 BA|Bc dB d2 cA|c2 BA GA B2|
Bc dB d2 cA|c2 BG A3:|A|GB dB ce ge|fg ab e3e|
fd dB d2 cB|AB cd B4|Ed dc B2 BA|Bc dc B2 BA|
Bc dB d2 cA|c2 BA GA B2|Bc dB d2 cA|c2 BG A3:|

